_inc/systems/logos/auto-demo.svg

<?xml version="1.0" encoding="utf-8"?>
<svg version="1.1" id="demo" x="0px" y="0px" viewBox="0 0 200 40" xmlns="http://www.w3.org/2000/svg">
  <path d="M 65.197 29.202 L 68.497 10.452 L 76.477 10.452 C 79.057 10.452 80.892 10.907 81.982 11.817 C 83.072 12.727 83.617 14.202 83.617 16.242 C 83.617 17.282 83.497 18.482 83.257 19.842 C 82.657 23.202 81.632 25.602 80.182 27.042 C 78.732 28.482 76.397 29.202 73.177 29.202 Z M 75.697 15.252 L 73.327 15.252 L 71.737 24.402 L 74.107 24.402 C 74.887 24.402 75.467 24.307 75.847 24.117 C 76.227 23.927 76.477 23.492 76.597 22.812 L 77.647 16.842 C 77.667 16.722 77.677 16.562 77.677 16.362 C 77.677 15.902 77.517 15.602 77.197 15.462 C 76.877 15.322 76.377 15.252 75.697 15.252 Z M 97.177 22.122 L 91.477 22.122 L 91.087 24.402 L 98.077 24.402 L 97.237 29.202 L 84.547 29.202 L 87.847 10.452 L 100.387 10.452 L 98.827 15.252 L 92.677 15.252 L 92.257 17.772 L 97.957 17.772 Z M 105.846 29.202 L 99.906 29.202 L 104.286 10.452 L 111.726 10.452 L 112.266 19.992 L 112.476 19.992 L 116.376 10.452 L 123.816 10.452 L 121.596 29.202 L 115.626 29.202 L 116.886 20.112 L 116.676 20.112 L 112.926 29.202 L 108.576 29.202 L 107.946 20.112 L 107.796 20.112 Z M 132.246 16.722 L 130.866 24.522 L 133.236 24.522 C 134.016 24.522 134.596 24.427 134.976 24.237 C 135.356 24.047 135.606 23.612 135.726 22.932 L 137.106 15.132 L 134.706 15.132 C 133.946 15.132 133.376 15.227 132.996 15.417 C 132.616 15.607 132.366 16.042 132.246 16.722 Z M 135.696 10.002 C 138.236 10.002 140.046 10.497 141.126 11.487 C 142.206 12.477 142.746 14.002 142.746 16.062 C 142.746 18.122 142.421 20.277 141.771 22.527 C 141.121 24.777 140.091 26.527 138.681 27.777 C 137.271 29.027 135.211 29.652 132.501 29.652 C 129.791 29.652 127.896 29.157 126.816 28.167 C 125.736 27.177 125.196 25.652 125.196 23.592 C 125.196 22.612 125.336 21.317 125.616 19.707 C 125.896 18.097 126.266 16.707 126.726 15.537 C 127.186 14.367 127.806 13.352 128.586 12.492 C 130.086 10.832 132.456 10.002 135.696 10.002 Z M 143.135 28.872 L 144.815 23.922 C 146.495 24.382 148.035 24.612 149.435 24.612 C 150.835 24.612 151.965 24.552 152.825 24.432 L 153.065 22.932 L 150.575 22.692 C 148.675 22.512 147.33 22.082 146.54 21.402 C 145.75 20.722 145.355 19.762 145.355 18.522 C 145.355 17.982 145.415 17.382 145.535 16.722 C 145.995 14.162 146.83 12.402 148.04 11.442 C 149.25 10.482 151.125 10.002 153.665 10.002 C 156.205 10.002 158.445 10.252 160.385 10.752 L 158.825 15.552 C 157.085 15.252 155.685 15.102 154.625 15.102 C 153.565 15.102 152.665 15.152 151.925 15.252 L 151.685 16.722 L 153.695 16.932 C 155.735 17.152 157.185 17.637 158.045 18.387 C 158.905 19.137 159.335 20.142 159.335 21.402 C 159.335 22.682 159.055 24.002 158.495 25.362 C 158.215 26.062 157.91 26.647 157.58 27.117 C 157.25 27.587 156.83 27.987 156.32 28.317 C 155.81 28.647 155.345 28.897 154.925 29.067 C 154.505 29.237 153.975 29.362 153.335 29.442 C 152.395 29.582 151.245 29.652 149.885 29.652 C 147.405 29.652 145.155 29.392 143.135 28.872 Z" style="fill: rgb(255, 255, 255); white-space: pre;"/>
  <path d="M 46.75 18.965 C 46.847 18.965 46.935 18.907 46.972 18.817 C 47.071 18.381 47.304 17.987 47.637 17.689 C 47.693 17.653 47.711 17.579 47.711 17.505 C 47.707 17.443 47.672 17.388 47.619 17.357 L 42.407 14.307 L 45.734 12.366 C 45.867 12.29 45.95 12.15 45.956 11.997 C 45.958 11.841 45.872 11.698 45.734 11.627 L 44.736 11.054 C 44.604 10.98 44.443 10.98 44.311 11.054 L 39.837 13.641 C 39.705 13.718 39.621 13.858 39.616 14.011 L 39.616 19.15 C 39.613 19.305 39.699 19.449 39.837 19.519 L 40.836 20.092 C 40.902 20.132 40.98 20.152 41.057 20.148 C 41.167 20.151 41.273 20.111 41.353 20.037 C 41.433 19.951 41.479 19.84 41.483 19.723 L 41.483 15.915 L 46.658 18.946 C 46.687 18.96 46.719 18.966 46.75 18.965 Z M 53.516 25.434 C 53.439 25.437 53.363 25.456 53.294 25.49 L 49.967 27.412 L 49.967 21.423 C 49.967 21.294 49.837 21.164 49.689 21.22 C 49.268 21.346 48.82 21.352 48.395 21.238 C 48.259 21.199 48.122 21.299 48.118 21.442 L 48.118 27.393 L 44.791 25.471 C 44.724 25.431 44.647 25.412 44.569 25.416 C 44.336 25.418 44.147 25.607 44.144 25.841 L 44.144 27.005 C 44.141 27.161 44.227 27.304 44.366 27.375 L 48.839 29.944 C 48.906 29.984 48.983 30.004 49.061 30 C 49.138 29.999 49.214 29.98 49.283 29.944 L 53.756 27.375 C 53.889 27.298 53.973 27.159 53.978 27.005 L 53.978 25.841 C 53.941 25.638 53.738 25.434 53.516 25.434 Z M 51.852 12.054 C 52.642 12.054 53.137 11.198 52.741 10.514 C 52.346 9.829 51.358 9.829 50.963 10.514 C 50.873 10.67 50.825 10.847 50.825 11.027 C 50.825 11.594 51.285 12.054 51.852 12.054 Z M 54.693 11.603 C 53.902 11.603 53.408 12.459 53.804 13.144 C 54.199 13.828 55.187 13.828 55.582 13.144 C 55.672 12.988 55.72 12.81 55.72 12.63 C 55.72 12.063 55.26 11.603 54.693 11.603 Z M 57.513 15.339 C 58.304 15.339 58.798 14.484 58.403 13.799 C 58.007 13.115 57.019 13.115 56.624 13.799 C 56.534 13.955 56.487 14.132 56.487 14.313 C 56.487 14.88 56.946 15.339 57.513 15.339 Z M 54.693 14.929 C 53.902 14.929 53.408 15.784 53.804 16.469 C 54.199 17.153 55.187 17.153 55.582 16.469 C 55.672 16.313 55.72 16.136 55.72 15.955 C 55.72 15.388 55.26 14.929 54.693 14.929 Z M 51.852 18.645 C 52.642 18.645 53.137 17.789 52.741 17.105 C 52.346 16.42 51.358 16.42 50.963 17.105 C 50.873 17.261 50.825 17.438 50.825 17.618 C 50.825 18.185 51.285 18.645 51.852 18.645 Z M 49.081 20.268 C 49.871 20.268 50.365 19.412 49.97 18.728 C 49.575 18.043 48.587 18.043 48.192 18.728 C 48.101 18.884 48.054 19.061 48.054 19.241 C 48.054 19.808 48.514 20.268 49.081 20.268 Z M 57.513 16.591 C 56.723 16.591 56.229 17.447 56.624 18.131 C 57.019 18.816 58.007 18.816 58.403 18.131 C 58.493 17.975 58.54 17.798 58.54 17.618 C 58.54 17.051 58.08 16.591 57.513 16.591 Z M 57.513 19.818 C 56.723 19.818 56.229 20.673 56.624 21.358 C 57.019 22.042 58.007 22.042 58.403 21.358 C 58.493 21.202 58.54 21.025 58.54 20.844 C 58.54 20.277 58.08 19.818 57.513 19.818 Z" style="fill: rgb(204, 204, 204);"/>
</svg>

<svg xmlns="http://www.w3.org/2000/svg" viewBox="0 0 200 40"><path d="m65.2 29.2 3.3-18.75h7.98q3.87 0 5.5 1.37 1.64 1.35 1.64 4.42 0 1.56-.36 3.6-.9 5.04-3.08 7.2-2.17 2.16-7 2.16Zm10.5-13.95h-2.37l-1.6 9.15h2.38q1.17 0 1.74-.28.57-.3.75-1.3l1.05-5.98q.03-.18.03-.48 0-.69-.48-.9a4 4 0 0 0-1.5-.2m21.48 6.87h-5.7l-.4 2.28h7l-.84 4.8h-12.7l3.3-18.75h12.55l-1.56 4.8h-6.15l-.42 2.52h5.7Zm8.67 7.08H99.9l4.38-18.75h7.44l.54 9.54h.2l3.9-9.54h7.45L121.6 29.2h-5.97l1.26-9.09h-.21l-3.75 9.1h-4.35l-.63-9.1h-.15Zm26.4-12.48-1.38 7.8h2.37q1.17 0 1.74-.28.57-.3.75-1.3l1.38-7.8h-2.4q-1.14 0-1.71.28t-.75 1.3M135.7 10q3.81 0 5.43 1.49 1.62 1.48 1.62 4.57t-.98 6.47-3.09 5.25q-2.1 1.87-6.18 1.87-4.05 0-5.68-1.48-1.62-1.5-1.62-4.58 0-1.47.42-3.88t1.1-4.17a10 10 0 0 1 1.87-3.05q2.25-2.49 7.1-2.49m7.44 18.87 1.68-4.95q2.52.7 4.62.7t3.38-.19l.25-1.5-2.5-.24q-2.85-.26-4.03-1.29a3.6 3.6 0 0 1-1.19-2.88q0-.81.19-1.8.69-3.84 2.5-5.28 1.82-1.44 5.63-1.44t6.72.75l-1.56 4.8q-2.62-.45-4.2-.45-1.6 0-2.7.15l-.25 1.47 2.01.21q3.07.32 4.35 1.46a3.8 3.8 0 0 1 1.3 3.01q0 1.92-.84 3.96-.42 1.05-.92 1.76-.5.7-1.26 1.2t-1.4.75q-.62.26-1.58.37-1.41.21-3.46.21-3.7 0-6.75-.78" style="fill:#fff;white-space:pre"/><path d="M46.75 18.97q.16 0 .22-.15.16-.67.67-1.13.07-.06.07-.19a.2.2 0 0 0-.1-.14l-5.2-3.05 3.32-1.94a.4.4 0 0 0 .23-.37q-.01-.25-.23-.37l-1-.58a.4.4 0 0 0-.42 0l-4.47 2.6a.5.5 0 0 0-.22.36v5.14q0 .25.22.37l1 .57a.4.4 0 0 0 .22.06q.16 0 .3-.11.11-.14.12-.32v-3.8l5.18 3.03zm6.77 6.46-.23.06-3.32 1.92v-5.99c0-.13-.13-.26-.28-.2q-.64.19-1.3.02a.22.22 0 0 0-.27.2v5.95l-3.33-1.92a.4.4 0 0 0-.22-.05.44.44 0 0 0-.43.42V27q.01.25.23.38l4.47 2.56a.4.4 0 0 0 .22.06l.22-.06 4.48-2.57a.4.4 0 0 0 .22-.37v-1.16c-.04-.2-.24-.4-.46-.4m-1.67-13.38a1.03 1.03 0 1 0 0-2.05 1.03 1.03 0 0 0 0 2.05m2.84-.45a1.03 1.03 0 1 0 0 2.06 1.03 1.03 0 0 0 0-2.06m2.82 3.74a1.03 1.03 0 1 0 0-2.05 1.03 1.03 0 0 0 0 2.05m-2.82-.41a1.03 1.03 0 1 0 0 2.05 1.03 1.03 0 0 0 0-2.05m-2.84 3.72a1.03 1.03 0 1 0 0-2.06 1.03 1.03 0 0 0 0 2.05m-2.77 1.62a1.03 1.03 0 1 0 0-2.06 1.03 1.03 0 0 0 0 2.06m8.43-3.68a1.03 1.03 0 1 0 0 2.05 1.03 1.03 0 0 0 0-2.05m0 3.23a1.03 1.03 0 1 0 0 2.05 1.03 1.03 0 0 0 0-2.05" style="fill:#ccc"/></svg>
